icons/mail-lock.svg

<svg
  width="24"
  height="24"
  viewBox="0 0 24 24"
  xmlns="http://www.w3.org/2000/svg"
  fill="none"
  stroke="currentColor"
  stroke-width="2"
  stroke-linecap="round"
  stroke-linejoin="round"
>
  <path d="M12 20H3V4h18v6" />
  <path d="M21 5l-9 8-9-8" />
  <path d="M22 18h-6v3h6v-3z" />
  <path d="M21 18v-2a2 2 0 1 0-4 0v2" />
</svg>

<svg width="24" height="24" viewBox="0 0 24 24" fill="none" xmlns="http://www.w3.org/2000/svg">
<path d="M12 20H3V4H21V10" stroke="white" stroke-width="2" stroke-linecap="round" stroke-linejoin="round"/>
<path d="M21 5L12 13L3 5" stroke="white" stroke-width="2" stroke-linecap="round" stroke-linejoin="round"/>
<path d="M22 18H16V21H22V18Z" stroke="white" stroke-width="2" stroke-linecap="round" stroke-linejoin="round"/>
<path d="M21 18V16C21 14.8954 20.1046 14 19 14C17.8954 14 17 14.8954 17 16V18" stroke="white" stroke-width="2" stroke-linecap="round" stroke-linejoin="round"/>
</svg>
